X: 7856
T: Commuter, The
R: jig
M: 6/8
K: Dmajor
FAF EDE|Fdd B2A|F2F EDE|FAF EDE|
F2F EDE|Fdd B2A|FAF EDE|FDD D3:|
|:dcd AFD|EFE FEA|dcd AFD|efe fdB|
dcd AFD|EFE FED|G2E F2D|EFE EDD:|

